X:15
T:The Outlandish Knight
T:Lady Isabel and the Elf Knight
C:Trad
B:Bronson
O:Sharp MSS., 736/. Sung by Mrs. J. Southwood, Bridgwater, January I, I906.
M:6/8
L:1/8
K:G
D | GGG B2 A | GFE D2 D |
w:The out-land-ish knight came from the North-lands He
G2 A BBe | d3-d2 d | dcB ABc | BAG E2 G |
w:came a woo-ing of me* He said he would take me un-to the North Lands And
AFD DFA | c3-c2 c | BAG DFA | G3-G2 |]
w:there he would mar_ ry me* And there he would mar_ ry me.
W:
W:The outlandish knight came from the Northlands
W:He came a wooing of me
W:He said he would take me unto the North Lands
W:And there he would marry me
W:And there he would marry me.
